tools/download-figma-icons/icons/outlined-large/handshake.svg

<svg width="64" height="64" viewBox="0 0 64 64" fill="none" xmlns="http://www.w3.org/2000/svg">
<path fill-rule="evenodd" clip-rule="evenodd" d="M52.7487 38.2009L36.9889 24.3741C36.7159 24.1351 36.3639 24.0021 35.9999 24.0021H28C27.576 24.0021 27.172 24.1811 26.888 24.4961L24.0921 27.591C23.1071 28.556 22.1091 28.995 20.9511 29.007C19.6251 28.992 18.4001 28.328 17.5871 27.754L24.3801 19.2271L31.95 18.0201L52.8797 21.4201L56.9837 36.0829L52.7487 38.2009ZM52.3437 44.2138C51.6367 45.0518 50.3558 45.1728 49.5388 44.5288L35.4809 32.368C34.8529 31.825 33.9069 31.894 33.365 32.521C32.823 33.148 32.893 34.0959 33.5189 34.6379L44.5728 44.1978C44.9408 44.4938 45.1728 44.9348 45.2258 45.4478C45.2818 46.0118 45.1138 46.5718 44.7648 46.9858C44.0608 47.8228 42.7798 47.9468 41.9519 47.2958L31.473 38.3609C30.842 37.8249 29.896 37.8999 29.358 38.5299C28.821 39.1599 28.896 40.1069 29.527 40.6449L37.0399 47.0488C37.4949 47.4138 37.6329 47.8888 37.6669 48.2248C37.7229 48.7728 37.5479 49.3318 37.1869 49.7598C36.4799 50.5978 35.1979 50.7187 34.3569 50.0548L29.925 46.3888C29.872 46.3438 29.817 46.2988 29.762 46.2548L27.456 44.3468C26.816 43.8188 25.872 43.9078 25.344 44.5478C24.816 45.1858 24.905 46.1318 25.544 46.6598L27.937 48.6388C28.261 48.9208 28.462 49.3178 28.509 49.7678C28.565 50.3128 28.393 50.8677 28.036 51.2907C27.332 52.1277 26.05 52.2497 25.206 51.5827L6.90825 36.4679L11.1442 21.3381L19.9861 19.9291L14.3272 27.031C13.8582 27.619 13.8972 28.464 14.4202 29.006C14.5352 29.127 17.3001 31.956 20.8941 32.007C22.8451 32.078 24.6251 31.27 26.254 29.668L28.666 27.002H35.4359L52.0607 41.5859C52.4677 41.9068 52.7197 42.3568 52.7697 42.8548C52.8197 43.3458 52.6677 43.8278 52.3437 44.2138ZM62.4996 38.0029H60.6376L54.3077 15.3932L63.0566 11.8932C63.8256 11.5862 64.1996 10.7122 63.8926 9.94322C63.5856 9.17423 62.7126 8.80023 61.9426 9.10723L51.9427 13.1082C51.2307 13.3922 50.8487 14.1682 51.0557 14.9052L51.9877 18.2361L32.192 15.0202C32.035 14.9952 31.873 14.9942 31.716 15.0192L12.0342 18.1581L12.9442 14.9052C13.1512 14.1682 12.7692 13.3922 12.0572 13.1082L2.05731 9.10723C1.28932 8.80123 0.416326 9.17423 0.10733 9.94322C-0.199667 10.7122 0.174329 11.5862 0.94332 11.8932L9.69222 15.3932L3.36229 38.0029H1.50031C0.672323 38.0029 0.000331066 38.6749 0.000331066 39.5029C0.000331066 40.3309 0.672323 41.0039 1.50031 41.0039H4.50028C5.17327 41.0039 5.76327 40.5549 5.94426 39.9069L6.02326 39.6269L23.3201 53.9157C24.2421 54.6437 25.355 54.9997 26.462 54.9997C27.909 54.9997 29.346 54.3927 30.33 53.2237C30.777 52.6937 31.106 52.0777 31.304 51.4237L32.473 52.3887C34.5959 54.0667 37.7419 53.7557 39.4799 51.6937C39.9309 51.1597 40.2579 50.5408 40.4569 49.8828C41.2909 50.4178 42.2378 50.6968 43.1878 50.6968C44.6358 50.6958 46.0728 50.0888 47.0588 48.9198C47.5058 48.3888 47.8288 47.7658 48.0238 47.1008C48.8598 47.6408 49.8118 47.9228 50.7667 47.9228C52.2137 47.9218 53.6507 47.3158 54.6377 46.1468C55.4907 45.1348 55.8877 43.8568 55.7547 42.5518C55.6757 41.7759 55.3977 41.0599 54.9947 40.4319L57.8087 39.0259L58.0557 39.9069C58.2367 40.5549 58.8267 41.0039 59.4997 41.0039H62.4996C63.3276 41.0039 63.9996 40.3309 63.9996 39.5029C63.9996 38.6749 63.3276 38.0029 62.4996 38.0029Z" fill="black"/>
</svg>

<svg xmlns="http://www.w3.org/2000/svg" width="64" height="64" fill="none" viewBox="0 0 64 64"><path fill="currentColor" fill-rule="evenodd" d="m52.749 38.2-15.76-13.826a1.5 1.5 0 0 0-.99-.372H28a1.5 1.5 0 0 0-1.112.494l-2.796 3.095c-.985.965-1.983 1.404-3.14 1.416-1.327-.015-2.552-.679-3.365-1.253l6.793-8.527 7.57-1.207 20.93 3.4 4.104 14.663zm-.405 6.014c-.707.838-1.988.959-2.805.315L35.48 32.368a1.5 1.5 0 0 0-2.116.153 1.5 1.5 0 0 0 .154 2.117l11.054 9.56c.368.296.6.737.653 1.25a2.07 2.07 0 0 1-.461 1.538c-.704.837-1.985.96-2.813.31L31.473 38.36a1.5 1.5 0 0 0-1.946 2.284l7.513 6.404c.455.365.593.84.627 1.176a2.07 2.07 0 0 1-.48 1.535c-.707.838-1.99.959-2.83.295l-4.432-3.666-.163-.134-2.306-1.908a1.5 1.5 0 1 0-1.912 2.313l2.393 1.979c.324.282.525.679.572 1.129a2.05 2.05 0 0 1-.473 1.523c-.704.837-1.986.959-2.83.292L6.908 36.468l4.236-15.13 8.842-1.409-5.659 7.102a1.5 1.5 0 0 0 .093 1.975c.115.121 2.88 2.95 6.474 3.001 1.951.071 3.731-.737 5.36-2.339l2.412-2.666h6.77L52.06 41.586a1.815 1.815 0 0 1 .283 2.628M62.5 38.003h-1.862l-6.33-22.61 8.749-3.5a1.5 1.5 0 0 0-1.114-2.786l-10 4.001a1.5 1.5 0 0 0-.887 1.797l.932 3.331-19.796-3.216a1.5 1.5 0 0 0-.476 0l-19.682 3.138.91-3.253a1.5 1.5 0 0 0-.887-1.797l-10-4a1.5 1.5 0 0 0-1.114 2.786l8.75 3.5-6.33 22.609H1.5a1.5 1.5 0 0 0 0 3h3a1.5 1.5 0 0 0 1.444-1.096l.08-.28L23.32 53.916A5.06 5.06 0 0 0 26.462 55c1.447 0 2.884-.607 3.868-1.776.447-.53.776-1.146.974-1.8l1.169.965c2.123 1.678 5.269 1.367 7.007-.695a5.1 5.1 0 0 0 .977-1.811 5.06 5.06 0 0 0 6.602-.963c.447-.531.77-1.154.965-1.82a5.06 5.06 0 0 0 2.743.823c1.447-.001 2.884-.607 3.87-1.776a4.8 4.8 0 0 0 1.118-3.595 4.8 4.8 0 0 0-.76-2.12l2.814-1.406.247.88a1.5 1.5 0 0 0 1.444 1.098h3a1.501 1.501 0 0 0 0-3.001" clip-rule="evenodd"/></svg>
